icons/svg/weibo.svg

<svg t="1565927038888" class="icon" viewBox="0 0 1024 1024" version="1.1" xmlns="http://www.w3.org/2000/svg" p-id="2004" width="200" height="200"><path d="M385.714286 733.714286q12-19.428571 6.285714-39.428572t-25.714286-28.571428q-19.428571-8-41.714285-0.571429t-34.285715 26.285714q-12.571429 19.428571-7.428571 39.142858t24.571428 28.857142 42.571429 1.428572T385.714286 733.714286z m53.714285-69.142857q4.571429-7.428571 2-15.142858T431.428571 638.857143q-8-2.857143-16.285714 0.285714T402.857143 649.714286q-9.714286 17.714286 7.428571 25.714285 8 2.857143 16.571429-0.285714t12.571428-10.571428z m99.428572 61.142857q-25.714286 58.285714-90.285714 85.714285t-128 6.857143q-61.142857-19.428571-84.285715-72.285714T240 638.857143q26.857143-53.142857 86.571429-79.428572T446.857143 548.571429q63.428571 16.571429 90.571428 68.285714T538.857143 725.714286z m178.285714-91.428572q-5.142857-54.857143-50.857143-97.142857T547.142857 474.857143 390.285714 462.857143q-127.428571 13.142857-211.142857 80.857143T103.428571 694.857143q5.142857 54.857143 50.857143 97.142857t119.142857 62.285714 156.857143 12q127.428571-13.142857 211.142857-80.857143T717.142857 634.285714z m176 2.285715q0 38.857143-21.142857 79.714285t-62.285714 78.285715-96.285715 67.142857-129.142857 47.428571-154.571428 17.714286-157.142857-19.142857-137.428572-53.142857-98-86.285715T0 654.285714q0-65.714286 39.714286-140T152.571429 366.857143q96.571429-96.571429 195.142857-134.857143t140.857143 4q37.142857 36.571429 11.428571 119.428571-2.285714 8-0.571429 11.428572t5.714286 4 8.285714-0.285714T521.142857 368.571429l3.428572-1.142858q79.428571-33.714286 140.571428-33.714285t87.428572 34.857143q25.714286 36 0 101.714285-1.142857 7.428571-2.571429 11.428572t2.571429 7.142857 6.857142 4.285714 9.714286 3.428572q32.571429 10.285714 58.857143 26.857142t45.714286 46.571429 19.428571 66.571429z m-42.285714-356.571429q24 26.857143 31.142857 62T878.285714 409.142857q-4.571429 13.142857-16.857143 19.428572t-25.428571 2.285714q-13.142857-4.571429-19.428571-16.857143t-2.285715-25.428571q11.428571-36-13.714285-63.428572t-61.142858-20q-13.714286 2.857143-25.714285-4.571428t-14.285715-21.142858q-2.857143-13.714286 4.571429-25.428571t21.142857-14.571429q34.285714-7.428571 68 3.142858t57.714286 37.428571z m103.428571-93.142857q49.714286 54.857143 64.285715 127.142857T1010.857143 452q-5.142857 15.428571-19.428572 22.857143t-29.714285 2.285714-22.857143-19.428571-2.857143-29.714286q16-46.857143 5.714286-98.285714t-45.714286-90.285715q-35.428571-39.428571-84.571429-54.571428t-98.857142-4.857143q-16 3.428571-29.714286-5.428571t-17.142857-24.857143 5.428571-29.428572T696 103.428571q70.285714-14.857143 139.428571 6.571429T954.285714 186.857143z" p-id="2005"></path></svg>

<svg class="icon" viewBox="0 0 1024 1024" xmlns="http://www.w3.org/2000/svg" width="200" height="200"><path d="M385.714 733.714q12-19.428 6.286-39.428t-25.714-28.572q-19.429-8-41.715-.571t-34.285 26.286q-12.572 19.428-7.429 39.142t24.572 28.858T350 760.857t35.714-27.143zm53.715-69.143q4.571-7.428 2-15.142t-10-10.572q-8-2.857-16.286.286t-12.286 10.571q-9.714 17.715 7.429 25.715 8 2.857 16.571-.286t12.572-10.572zm99.428 61.143Q513.143 784 448.571 811.43t-128 6.857Q259.43 798.857 236.286 746T240 638.857q26.857-53.143 86.571-79.428t120.286-10.858q63.429 16.572 90.572 68.286t1.428 108.857zm178.286-91.428q-5.143-54.857-50.857-97.143t-119.143-62.286-156.857-12Q262.857 476 179.143 543.714t-75.714 151.143q5.142 54.857 50.857 97.143t119.143 62.286 156.857 12q127.428-13.143 211.143-80.857t75.714-151.143zm176 2.285q0 38.858-21.143 79.715t-62.286 78.285-96.285 67.143-129.143 47.429-154.572 17.714-157.143-19.143-137.428-53.143-98-86.285T0 654.286q0-65.715 39.714-140t112.857-147.429Q249.143 270.286 347.714 232t140.857 4Q525.714 272.571 500 355.429q-2.286 8-.571 11.428t5.714 4 8.286-.286 7.714-2l3.428-1.142Q604 333.714 665.143 333.714t87.428 34.857q25.715 36 0 101.715-1.142 7.428-2.571 11.428t2.571 7.143 6.858 4.286 9.714 3.428Q801.714 506.857 828 523.43T873.714 570t19.429 66.571zM850.857 280q24 26.857 31.143 62t-3.714 67.143q-4.572 13.143-16.857 19.428T836 430.857q-13.143-4.571-19.429-16.857t-2.285-25.429q11.428-36-13.715-63.428t-61.142-20q-13.715 2.857-25.715-4.572T699.43 279.43Q696.57 265.714 704 254t21.143-14.571q34.286-7.429 68 3.142T850.857 280zm103.429-93.143Q1004 241.714 1018.57 314t-7.714 138q-5.143 15.429-19.428 22.857t-29.715 2.286-22.857-19.429T936 428q16-46.857 5.714-98.286T896 239.43Q860.571 200 811.429 184.857T712.57 180q-16 3.429-29.714-5.429t-17.143-24.857 5.429-29.428T696 103.429Q766.286 88.57 835.429 110t118.857 76.857z"/></svg>
